!!!!SEGMENT: pl-wn--sd-xvi-o-247_anonim--kancjonal-zamoyskich-piesn-na-smierc-laskiego-ach-mila-smierci.krn
!!!cenid: 15xx:805
!!!COM: Anonim
!!!COM-rismID: pe30004985
!!!CDT:
!!!CNT:
!!!GTL: Kancjonał Zamoyskich
!!!OTL: [Pieśń na śmierć Łaskiego]/Ach miła śmierci
!!!PDT: 1558
!!!AGN:
!!!SMS-siglum: PL-Wn
!!!SMS-shelfmark: SD XVI.O.247
!!!SMS-shelfwork: G
!!!SMS-variant:
!!!SMS-altvar:
!!!NIFC-rismSourceID: 990070406
!!!NIFC-rismChildID: 990070406
!!!NIFC-islandoraID: none
!!!URL-pdf-islandora:
!!!URL-scan: https://polona2.pl/item/piesn-na-smierc-laskiego,MjYzMzM2/3 @EN{Scan on Polona} @PL{Skany w portalu Polona}
!!!IIIF: https://polona2.pl/iiif/item/MjYzMzM2/manifest.json
!!!ONB-nifc: UWAGA: proszę zapisywać tylko teksty występujące bezpośrednio pod nutami
!!!AIN: 1 alto 1 bass 1 soprn 1 tenor
!!!key: e:phr
**kern	**text	**mod-text	**text	**mod-text	**text	**mod-text	**text	**mod-text	**text	**mod-text	**kern	**text	**mod-text	**text	**mod-text	**text	**mod-text	**text	**mod-text	**text	**mod-text	**kern	**text	**mod-text	**text	**mod-text	**text	**mod-text	**text	**mod-text	**text	**mod-text	**kern
*part4	*part4	*part4	*	*	*	*	*	*	*	*	*part3	*part3	*part3	*	*	*	*	*	*	*	*	*part2	*part2	*part2	*	*	*	*	*	*	*	*	*part1
*staff4	*staff4	*staff4	*	*	*	*	*	*	*	*	*staff3	*staff3	*staff3	*	*	*	*	*	*	*	*	*staff2	*staff2	*staff2	*	*	*	*	*	*	*	*	*staff1
*I"BAS.	*	*	*	*	*	*	*	*	*	*	*I"TENOR.	*	*	*	*	*	*	*	*	*	*	*I"ALT.	*	*	*	*	*	*	*	*	*	*	*I"[CANTVS.]
*mI"Basso	*	*	*	*	*	*	*	*	*	*	*mI"Tenore	*	*	*	*	*	*	*	*	*	*	*mI"Alto	*	*	*	*	*	*	*	*	*	*	*mI"[Soprano]
*I'B	*	*	*	*	*	*	*	*	*	*	*I'T	*	*	*	*	*	*	*	*	*	*	*I'A	*	*	*	*	*	*	*	*	*	*	*I'S
*Ibass	*	*	*	*	*	*	*	*	*	*	*Itenor	*	*	*	*	*	*	*	*	*	*	*Ialto	*	*	*	*	*	*	*	*	*	*	*Isoprn
*ICvox	*	*	*	*	*	*	*	*	*	*	*ICvox	*	*	*	*	*	*	*	*	*	*	*ICvox	*	*	*	*	*	*	*	*	*	*	*ICvox
*clefF4	*	*	*	*	*	*	*	*	*	*	*clefC4	*	*	*	*	*	*	*	*	*	*	*clefC4	*	*	*	*	*	*	*	*	*	*	*clefC1
*mclefF4	*	*	*	*	*	*	*	*	*	*	*mclefGv2	*	*	*	*	*	*	*	*	*	*	*mclefG2	*	*	*	*	*	*	*	*	*	*	*mclefG2
*k[]	*	*	*	*	*	*	*	*	*	*	*k[]	*	*	*	*	*	*	*	*	*	*	*k[]	*	*	*	*	*	*	*	*	*	*	*k[]
*e:phr	*	*	*	*	*	*	*	*	*	*	*e:phr	*	*	*	*	*	*	*	*	*	*	*e:phr	*	*	*	*	*	*	*	*	*	*	*e:phr
*M2/1	*	*	*	*	*	*	*	*	*	*	*M2/1	*	*	*	*	*	*	*	*	*	*	*M2/1	*	*	*	*	*	*	*	*	*	*	*M2/1
*met(C|)	*	*	*	*	*	*	*	*	*	*	*met(C|)	*	*	*	*	*	*	*	*	*	*	*met(C|)	*	*	*	*	*	*	*	*	*	*	*met(C|)
=1-	=1-	=1-	=1-	=1-	=1-	=1-	=1-	=1-	=1-	=1-	=1-	=1-	=1-	=1-	=1-	=1-	=1-	=1-	=1-	=1-	=1-	=1-	=1-	=1-	=1-	=1-	=1-	=1-	=1-	=1-	=1-	=1-	=1-
*xywh-#5:2827,442,2147,806	*	*	*	*	*	*	*	*	*	*	*xywh-#5:674,447,2028,816	*	*	*	*	*	*	*	*	*	*	*xywh-#4:2846,332,2234,962	*	*	*	*	*	*	*	*	*	*	*
0E	Ach	Ach	.	A	.	Puść	.	Bo	.	[Bo] wie-	0E	Ach	Ach	.	A	.	Puść	.	Bo	.	[Bo] wie-	0B	Ach	Ach	.	A	.	Puść	.	Bo	.	[Bo] wie-	0ryy
=2-	=2-	=2-	=2-	=2-	=2-	=2-	=2-	=2-	=2-	=2-	=2-	=2-	=2-	=2-	=2-	=2-	=2-	=2-	=2-	=2-	=2-	=2-	=2-	=2-	=2-	=2-	=2-	=2-	=2-	=2-	=2-	=2-	=2-
1C	mi-	mi-	.	snać	.	je-	.	ża-	.	-lcy	1G	mi-	mi-	.	snać	.	je-	.	ża-	.	-lcy	1c	mi-	mi-	.	snać	.	je-	.	ża-	.	-lcy	0ryy
1AA	-ła	-ła	.	je-	.	-dno	.	-dna	.	sta-	0A	-ła	-ła	.	je-	.	-dno	.	-dna	.	sta-	1c	-ła	-ła	.	je-	.	-dno	.	-dna	.	sta-	.
=3-	=3-	=3-	=3-	=3-	=3-	=3-	=3-	=3-	=3-	=3-	=3-	=3-	=3-	=3-	=3-	=3-	=3-	=3-	=3-	=3-	=3-	=3-	=3-	=3-	=3-	=3-	=3-	=3-	=3-	=3-	=3-	=3-	=3-
0BB	ſmier-	śmier-	.	-śliś	.	wo-	.	sro-	.	-no-	.	.	.	.	.	.	.	.	.	.	.	0B	ſmier-	śmier-	.	-śliś	.	wo-	.	sro-	.	-no-	0ryy
.	.	.	.	.	.	.	.	.	.	.	1G	ſmier-	śmier-	.	-śliś	.	wo-	.	sro-	.	-no-	.	.	.	.	.	.	.	.	.	.	.	.
=4-	=4-	=4-	=4-	=4-	=4-	=4-	=4-	=4-	=4-	=4-	=4-	=4-	=4-	=4-	=4-	=4-	=4-	=4-	=4-	=4-	=4-	=4-	=4-	=4-	=4-	=4-	=4-	=4-	=4-	=4-	=4-	=4-	=4-
0AA	-ći	-ci	.	kie-	.	-lno	.	-gość	.	-wie	0A	-ci	-ci	.	kie-	.	-lno	.	-gość	.	-wie	0E	-ći	-ci	.	kie-	.	-lno	.	-gość	.	-wie	0ryy
=5-	=5-	=5-	=5-	=5-	=5-	=5-	=5-	=5-	=5-	=5-	=5-	=5-	=5-	=5-	=5-	=5-	=5-	=5-	=5-	=5-	=5-	=5-	=5-	=5-	=5-	=5-	=5-	=5-	=5-	=5-	=5-	=5-	=5-
1AA	coſ	cóż	.	-dy	.	mię-	.	tak	.	o	1A	coſ	cóż	.	-dy	.	mię-	.	tak	.	o	1e	coſ	cóż	.	-dy	.	mię-	.	tak	.	o	0ryy
1AA	ci	ci	.	z kre-	.	-dzy	.	mo-	.	to	1A	ci	ci	.	z kre-	.	-dzy	.	mo-	.	to	1e	ci	ci	.	z kre-	.	-dzy	.	mo-	.	to	.
=6-	=6-	=6-	=6-	=6-	=6-	=6-	=6-	=6-	=6-	=6-	=6-	=6-	=6-	=6-	=6-	=6-	=6-	=6-	=6-	=6-	=6-	=6-	=6-	=6-	=6-	=6-	=6-	=6-	=6-	=6-	=6-	=6-	=6-
1E	po	po	.	-su	.	lu-	.	-żna	.	się	1B	po	po	.	-su	.	lu-	.	-żna	.	się	1e	po	po	.	-su	.	lu-	.	-żna	.	się	0ryy
1E	tey	tej	.	wy-	.	-dzi	.	nie	.	sta-	1c	tey	tej	.	wy-	.	-dzi	.	nie	.	sta-	0e	tey	tej	.	wy-	.	-dzi	.	nie	.	sta-	.
=7-	=7-	=7-	=7-	=7-	=7-	=7-	=7-	=7-	=7-	=7-	=7-	=7-	=7-	=7-	=7-	=7-	=7-	=7-	=7-	=7-	=7-	=7-	=7-	=7-	=7-	=7-	=7-	=7-	=7-	=7-	=7-	=7-	=7-
0F	zło-	zło-	.	-stą-	.	u-	.	by-	.	-ra-	0A	zło-	zło-	.	-stą-	.	u-	.	by-	.	-ra-	.	.	.	.	.	.	.	.	.	.	.	0ryy
.	.	.	.	.	.	.	.	.	.	.	.	.	.	.	-pi-	.	.	.	.	.	.	1d	zło-	zło-	.	-stą-	.	u-	.	by-	.	-ra-	.
=8-	=8-	=8-	=8-	=8-	=8-	=8-	=8-	=8-	=8-	=8-	=8-	=8-	=8-	=8-	=8-	=8-	=8-	=8-	=8-	=8-	=8-	=8-	=8-	=8-	=8-	=8-	=8-	=8-	=8-	=8-	=8-	=8-	=8-
!	!	!	!	!	!	!	!	!	!	!	!	!	!	!	!	!	!	!	!	!	!	!LO:TX:t=P:problem:custos przed zmianą klucza	!	!	!	!	!	!	!	!	!	!	!
0E	-ſci/	-ści,	.	-pi,	.	-szy,	.	-ła,	.	-li,	0B	-ſci/	-ści,	.	-pi,	.	-szy,	.	-ła,	.	-li,	0e	-ſci/	-ści,	.	-pi,	.	-szy,	.	-ła,	.	-li,	0ryy
!	!	!	!	!	!	!	!	!	!	!	!	!	!	!	!	!	!	!	!	!	!	!LO:MO:mod=*null:null	!	!	!	!	!	!	!	!	!	!	!
*	*	*	*	*	*	*	*	*	*	*	*	*	*	*	*	*	*	*	*	*	*	*clefC3	*	*	*	*	*	*	*	*	*	*	*
*custos:D	*	*	*	*	*	*	*	*	*	*	*custos:d	*	*	*	*	*	*	*	*	*	*	*custos:f	*	*	*	*	*	*	*	*	*	*	*
=9-	=9-	=9-	=9-	=9-	=9-	=9-	=9-	=9-	=9-	=9-	=9-	=9-	=9-	=9-	=9-	=9-	=9-	=9-	=9-	=9-	=9-	=9-	=9-	=9-	=9-	=9-	=9-	=9-	=9-	=9-	=9-	=9-	=9-
*xywh-#5:2822,1228,2132,598	*	*	*	*	*	*	*	*	*	*	*xywh-#5:669,1253,2038,613	*	*	*	*	*	*	*	*	*	*	*xywh-#4:2836,1260,2055,588	*	*	*	*	*	*	*	*	*	*	*
!LO:LB:g=original	!	!	!	!	!	!	!	!	!	!	!LO:LB:g=original	!	!	!	!	!	!	!	!	!	!	!LO:LB:g=original	!	!	!	!	!	!	!	!	!	!	!
0D	Zes	żeś	.	sa-	.	któ-	.	by	.	bo	0d	Zes	żes	.	sa-	.	któ-	.	by	.	bo	0f	Zes	żeś	.	sa-	.	któ-	.	by	.	bo	0ryy
=10-	=10-	=10-	=10-	=10-	=10-	=10-	=10-	=10-	=10-	=10-	=10-	=10-	=10-	=10-	=10-	=10-	=10-	=10-	=10-	=10-	=10-	=10-	=10-	=10-	=10-	=10-	=10-	=10-	=10-	=10-	=10-	=10-	=10-
0D	ták	tak	.	-ma	.	-re-	.	gdy	.	je-	0d	ták	tak	.	-ma	.	-re-	.	gdy	.	je-	0f	ták	tak	.	-ma	.	-re-	.	gdy	.	je-	0ryy
=11-	=11-	=11-	=11-	=11-	=11-	=11-	=11-	=11-	=11-	=11-	=11-	=11-	=11-	=11-	=11-	=11-	=11-	=11-	=11-	=11-	=11-	=11-	=11-	=11-	=11-	=11-	=11-	=11-	=11-	=11-	=11-	=11-	=11-
1F	bár-	bar-	.	byś	.	-go	.	Ła-	.	-dno	1c	bár-	bar-	.	byś	.	-go	.	Ła-	.	-dno	1f	bár-	bar-	.	byś	.	-go	.	Ła-	.	-dno	0ryy
1C	-zo	-rdzo	.	ze-	.	.	.	.	.	.	1c	-żo	-rdzo	.	ze-	.	.	.	.	.	.	1e	-zo	-dzo	.	ze-	.	.	.	.	.	.	.
=12-	=12-	=12-	=12-	=12-	=12-	=12-	=12-	=12-	=12-	=12-	=12-	=12-	=12-	=12-	=12-	=12-	=12-	=12-	=12-	=12-	=12-	=12-	=12-	=12-	=12-	=12-	=12-	=12-	=12-	=12-	=12-	=12-	=12-
0D	ſro-	sro-	.	-zna-	.	sta-	.	-skie-	.	by-	0A	ſro-	sro-	.	-zna-	.	sta-	.	-skie-	.	by-	0d	ſro-	sro-	.	-zna-	.	sta-	.	-skie-	.	by-	0ryy
=13-	=13-	=13-	=13-	=13-	=13-	=13-	=13-	=13-	=13-	=13-	=13-	=13-	=13-	=13-	=13-	=13-	=13-	=13-	=13-	=13-	=13-	=13-	=13-	=13-	=13-	=13-	=13-	=13-	=13-	=13-	=13-	=13-	=13-
1AA	-ga	-ga	.	-ła,	.	-nu	.	-mu	.	-li	1A	-ga	-ga	.	-ła,	.	-nu	.	-mu	.	-li	1c	.	-ga	.	-ła,	.	-nu	.	-mu	.	-li	0ryy
1A	Be-	be-	.	by	.	ta	.	co	.	tę	1c	be-	be-	.	by	.	ta	.	co	.	tę	1c	-ga	[be-	.	by	.	ta	.	co	.	tę	.
=14-	=14-	=14-	=14-	=14-	=14-	=14-	=14-	=14-	=14-	=14-	=14-	=14-	=14-	=14-	=14-	=14-	=14-	=14-	=14-	=14-	=14-	=14-	=14-	=14-	=14-	=14-	=14-	=14-	=14-	=14-	=14-	=14-	=14-
1F	-ze	-ze-	.	się	.	krzy-	.	w czym	.	o-	0d	-ze	-ze-	.	się	.	krzy-	.	w czym	.	o-	0f	bez	-ze-	.	się	.	krzy-	.	w czym	.	o-	0ryy
1D	wſzey	-wszej	.	o-	.	-wda	.	prze-	.	-so-	.	.	.	.	.	.	.	.	.	.	.	.	.	.	.	.	.	.	.	.	.	.	.
=15-	=15-	=15-	=15-	=15-	=15-	=15-	=15-	=15-	=15-	=15-	=15-	=15-	=15-	=15-	=15-	=15-	=15-	=15-	=15-	=15-	=15-	=15-	=15-	=15-	=15-	=15-	=15-	=15-	=15-	=15-	=15-	=15-	=15-
*lig	*	*	*	*	*	*	*	*	*	*	*	*	*	*	*	*	*	*	*	*	*	*	*	*	*	*	*	*	*	*	*	*	*
1E	li-	li-	.	-ba-	.	nie	.	-ka-	.	-bę	1B	wſzey	-wszej	.	o-	.	-wda	.	prze-	.	-so-	1e	li-	-wszej]	.	o-	.	-wda	.	prze-	.	-so-	0ryy
1F	.	.	.	.	.	.	.	.	.	.	1A	li-	li-	.	-ba-	.	nie	.	-ka-	.	-bę	1d	-to-	li-	.	-ba-	.	nie	.	-ka-	.	-bę	.
*Xlig	*	*	*	*	*	*	*	*	*	*	*	*	*	*	*	*	*	*	*	*	*	*	*	*	*	*	*	*	*	*	*	*	*
=16-	=16-	=16-	=16-	=16-	=16-	=16-	=16-	=16-	=16-	=16-	=16-	=16-	=16-	=16-	=16-	=16-	=16-	=16-	=16-	=16-	=16-	=16-	=16-	=16-	=16-	=16-	=16-	=16-	=16-	=16-	=16-	=16-	=16-
0E	-to-	-to-	.	-czy-	.	ru-	.	-ży-	.	zna-	0B	-to-	-to-	.	-czy-	.	ru-	.	-ży-	.	zna-	0e	.	-to-	.	-czy-	.	ru-	.	-ży-	.	zna-	0ryy
=17-	=17-	=17-	=17-	=17-	=17-	=17-	=17-	=17-	=17-	=17-	=17-	=17-	=17-	=17-	=17-	=17-	=17-	=17-	=17-	=17-	=17-	=17-	=17-	=17-	=17-	=17-	=17-	=17-	=17-	=17-	=17-	=17-	=17-
0AA	-ſci/	-ści?	.	-ła.	.	-szy?	.	-ła.	.	-li.	0A	-ſci.	-ści?	.	-ła.	.	-szy?	.	-ła.	.	-li.	0e	-ſci/	-ści?	.	-ła.	.	-szy?	.	-ła.	.	-li.	0ryy
*custos:A	*	*	*	*	*	*	*	*	*	*	*custos:c	*	*	*	*	*	*	*	*	*	*	*custos:e	*	*	*	*	*	*	*	*	*	*	*
=18-	=18-	=18-	=18-	=18-	=18-	=18-	=18-	=18-	=18-	=18-	=18-	=18-	=18-	=18-	=18-	=18-	=18-	=18-	=18-	=18-	=18-	=18-	=18-	=18-	=18-	=18-	=18-	=18-	=18-	=18-	=18-	=18-	=18-
*xywh-#5:2807,1807,2117,623	*	*	*	*	*	*	*	*	*	*	*xywh-#5:636,1855,2122,593	*	*	*	*	*	*	*	*	*	*	*xywh-#4:2802,1818,2060,558	*	*	*	*	*	*	*	*	*	*	*
!LO:LB:g=original	!	!	!	!	!	!	!	!	!	!	!LO:LB:g=original	!	!	!	!	!	!	!	!	!	!	!LO:LB:g=original	!	!	!	!	!	!	!	!	!	!	!
1r	.	.	.	.	.	.	.	.	.	.	1r	.	.	.	.	.	.	.	.	.	.	1r	.	.	.	.	.	.	.	.	.	.	0ryy
1A	Nie	Nie	.	Roz-	.	Już	.	A	.	Je-	1c	Nie	Nie	.	Roz-	.	Już	.	A	.	Je-	1e	Nie	Nie	.	Roz-	.	Już	.	A	.	Je-	.
=19-	=19-	=19-	=19-	=19-	=19-	=19-	=19-	=19-	=19-	=19-	=19-	=19-	=19-	=19-	=19-	=19-	=19-	=19-	=19-	=19-	=19-	=19-	=19-	=19-	=19-	=19-	=19-	=19-	=19-	=19-	=19-	=19-	=19-
0F	fol-	fol-	.	-wa-	.	so-	.	snać	.	-dni	0A	fol-	fol-	.	-wa-	.	so-	.	snać	.	-dni	0f	fol-	fol-	.	-wa-	.	so-	.	snać	.	-dni	0ryy
=20-	=20-	=20-	=20-	=20-	=20-	=20-	=20-	=20-	=20-	=20-	=20-	=20-	=20-	=20-	=20-	=20-	=20-	=20-	=20-	=20-	=20-	=20-	=20-	=20-	=20-	=20-	=20-	=20-	=20-	=20-	=20-	=20-	=20-
1G	-gu-	-gu-	.	-ży-	.	-bie	.	i	.	z mi-	1B	-gu-	-gu-	.	-ży-	.	-bie	.	i	.	z mi-	1d	-gu-	-gu-	.	-ży-	.	-bie	.	i	.	z mi-	0ryy
1C	-iąc	-jąc	.	-wszy	.	ka-	.	tyś	.	-ło-	1c	-yąc	-jąc	.	-wszy	.	ka-	.	tyś	.	-ło-	0e	-iąc	-jąc	.	-wszy	.	ka-	.	tyś	.	-ło-	.
=21-	=21-	=21-	=21-	=21-	=21-	=21-	=21-	=21-	=21-	=21-	=21-	=21-	=21-	=21-	=21-	=21-	=21-	=21-	=21-	=21-	=21-	=21-	=21-	=21-	=21-	=21-	=21-	=21-	=21-	=21-	=21-	=21-	=21-
0F	ſta-	sta-	.	cza-	.	.	.	.	.	.	0A	ſta-	sta-	.	cza-	.	.	.	.	.	.	.	.	.	.	.	.	.	.	.	.	.	0ryy
.	.	.	.	.	.	.	.	.	.	.	.	.	.	.	.	.	.	.	.	.	.	1d	ſta-	sta-	.	cza-	.	.	.	.	.	.	.
=22-	=22-	=22-	=22-	=22-	=22-	=22-	=22-	=22-	=22-	=22-	=22-	=22-	=22-	=22-	=22-	=22-	=22-	=22-	=22-	=22-	=22-	=22-	=22-	=22-	=22-	=22-	=22-	=22-	=22-	=22-	=22-	=22-	=22-
1E	-nom	-nom,	.	sy	.	-żdy	.	go	.	-ści	1B	-nom	-nom,	.	sy	.	-żdy	.	go	.	-ści	1e	-nom	-nom,	.	sy	.	-żdy	.	go	.	-ści	0ryy
1C	ni	ni	.	snać	.	nie	.	z ty-	.	a	1c	ni	ni	.	snać	.	nie	.	z ty-	.	a	1e	ni	ni	.	snać	.	nie	.	z ty-	.	a	.
=23-	=23-	=23-	=23-	=23-	=23-	=23-	=23-	=23-	=23-	=23-	=23-	=23-	=23-	=23-	=23-	=23-	=23-	=23-	=23-	=23-	=23-	=23-	=23-	=23-	=23-	=23-	=23-	=23-	=23-	=23-	=23-	=23-	=23-
0F	żad-	żad-	.	by	.	tak	.	-łu	.	dru-	0A	żad-	żad-	.	by	.	tak	.	-łu	.	dru-	1.c	żad-	żad-	.	by	.	tak	.	-łu	.	dru-	0ryy
.	.	.	.	.	.	.	.	.	.	.	.	.	.	.	.	.	.	.	.	.	.	2d/	-ney	.	.	.	.	.	.	.	.	.	.
=24-	=24-	=24-	=24-	=24-	=24-	=24-	=24-	=24-	=24-	=24-	=24-	=24-	=24-	=24-	=24-	=24-	=24-	=24-	=24-	=24-	=24-	=24-	=24-	=24-	=24-	=24-	=24-	=24-	=24-	=24-	=24-	=24-	=24-
1E	-ney	-nej	.	się	.	do-	.	po-	.	-dzy	1B	-ney	-nej	.	się	.	do-	.	po-	.	-dzy	1e	za-	-nej	.	się	.	do-	.	po-	.	-dzy	0ryy
1C	za-	za-	.	ża-	.	-brze	.	-ra-	.	się	0c	za-	za-	.	ża-	.	-brze	.	-ra-	.	się	1e	-cno-	za-	.	ża-	.	-brze	.	-ra-	.	się	.
=25-	=25-	=25-	=25-	=25-	=25-	=25-	=25-	=25-	=25-	=25-	=25-	=25-	=25-	=25-	=25-	=25-	=25-	=25-	=25-	=25-	=25-	=25-	=25-	=25-	=25-	=25-	=25-	=25-	=25-	=25-	=25-	=25-	=25-
0G	-cno-	-cno-	.	-li-	.	tu-	.	-ży-	.	ba-	.	.	.	.	.	.	.	.	.	.	.	0d	-ſci.	-cno-	.	-li-	.	tu-	.	-ży-	.	ba-	0ryy
.	.	.	.	.	.	.	.	.	.	.	1B	-cno-	-cno-	.	-li-	.	tu-	.	-ży-	.	ba-	.	.	.	.	.	.	.	.	.	.	.	.
=26-	=26-	=26-	=26-	=26-	=26-	=26-	=26-	=26-	=26-	=26-	=26-	=26-	=26-	=26-	=26-	=26-	=26-	=26-	=26-	=26-	=26-	=26-	=26-	=26-	=26-	=26-	=26-	=26-	=26-	=26-	=26-	=26-	=26-
!	!	!	!	!	!	!	!	!	!	!	!	!	!	!	!	!	!	!	!	!	!	!LO:TX:t=P:problem:błędny kustosz	!	!	!	!	!	!	!	!	!	!	!
0C	-ſci/	-ści,	.	-ła,	.	-szy,	.	-ła,	.	-li,	0c	-ſci/	-ści,	.	-ła,	.	-szy,	.	-ła,	.	-li,	0c	.	-ści,	.	-ła,	.	-szy,	.	-ła,	.	-li,	0ryy
*	*	*	*	*	*	*	*	*	*	*	*	*	*	*	*	*	*	*	*	*	*	*custos:c	*	*	*	*	*	*	*	*	*	*	*
!	!	!	!	!	!	!	!	!	!	!	!	!	!	!	!	!	!	!	!	!	!	!LO:MO:mod=*null:null	!	!	!	!	!	!	!	!	!	!	!
*custos:D	*	*	*	*	*	*	*	*	*	*	*custos:A	*	*	*	*	*	*	*	*	*	*	*clefC4	*	*	*	*	*	*	*	*	*	*	*
=27-	=27-	=27-	=27-	=27-	=27-	=27-	=27-	=27-	=27-	=27-	=27-	=27-	=27-	=27-	=27-	=27-	=27-	=27-	=27-	=27-	=27-	=27-	=27-	=27-	=27-	=27-	=27-	=27-	=27-	=27-	=27-	=27-	=27-
*xywh-#5:2761,2386,2157,603	*	*	*	*	*	*	*	*	*	*	*xywh-#5:626,2414,2087,603	*	*	*	*	*	*	*	*	*	*	*xywh-#4:2783,2352,2100,563	*	*	*	*	*	*	*	*	*	*	*
!LO:LB:g=original	!	!	!	!	!	!	!	!	!	!	!LO:LB:g=original	!	!	!	!	!	!	!	!	!	!	!LO:LB:g=original	!	!	!	!	!	!	!	!	!	!	!
0D	Z koż-	z każ-	.	żeś	.	gdyś	.	bo	.	je-	0A	Z koz-	z każ-	.	żeś	.	gdyś	.	bo	.	je-	0F	Z koż-	z każ-	.	żeś	.	gdyś	.	bo	.	je-	0ryy
=28-	=28-	=28-	=28-	=28-	=28-	=28-	=28-	=28-	=28-	=28-	=28-	=28-	=28-	=28-	=28-	=28-	=28-	=28-	=28-	=28-	=28-	=28-	=28-	=28-	=28-	=28-	=28-	=28-	=28-	=28-	=28-	=28-	=28-
0AA	-dym	-dym	.	za-	.	nie	.	w o-	.	-dnak	0c	-dym	-dym	.	za-	.	nie	.	w o-	.	-dnak	0A	-dym	-dym	.	za-	.	nie	.	w o-	.	-dnak	0ryy
=29-	=29-	=29-	=29-	=29-	=29-	=29-	=29-	=29-	=29-	=29-	=29-	=29-	=29-	=29-	=29-	=29-	=29-	=29-	=29-	=29-	=29-	=29-	=29-	=29-	=29-	=29-	=29-	=29-	=29-	=29-	=29-	=29-	=29-
1BB	chceſz	chcesz	.	-cną	.	fol-	.	-czy	.	wszy-	1B	chceſz	chcesz	.	-cną	.	fol-	.	-czy	.	wszy-	1D	chceſz	chcesz	.	-cną	.	fol-	.	-czy	.	wszy-	0ryy
1C	.	.	.	.	.	.	.	le-	.	.	0A	.	.	.	o-	.	-go-	.	le-	.	-scy	1E	.	.	.	.	.	.	.	le-	.	.	.
=30-	=30-	=30-	=30-	=30-	=30-	=30-	=30-	=30-	=30-	=30-	=30-	=30-	=30-	=30-	=30-	=30-	=30-	=30-	=30-	=30-	=30-	=30-	=30-	=30-	=30-	=30-	=30-	=30-	=30-	=30-	=30-	=30-	=30-
*lig	*	*	*	*	*	*	*	*	*	*	*	*	*	*	*	*	*	*	*	*	*	*lig	*	*	*	*	*	*	*	*	*	*	*
1D	u-	u-	.	o-	.	-go-	.	-dwie	.	-scy	.	.	.	.	.	.	.	.	-dwie	.	.	1F	u-	u-	.	o-	.	-go-	.	-dwie	.	-scy	0ryy
1E	.	.	.	-so-	.	-wa-	.	byś	.	.	1G	u-	u-	.	-so-	.	-wa-	.	byś	.	.	1G	.	.	.	-so-	.	-wa-	.	byś	.	.	.
*Xlig	*	*	*	*	*	*	*	*	*	*	*	*	*	*	*	*	*	*	*	*	*	*Xlig	*	*	*	*	*	*	*	*	*	*	*
=31-	=31-	=31-	=31-	=31-	=31-	=31-	=31-	=31-	=31-	=31-	=31-	=31-	=31-	=31-	=31-	=31-	=31-	=31-	=31-	=31-	=31-	=31-	=31-	=31-	=31-	=31-	=31-	=31-	=31-	=31-	=31-	=31-	=31-
1AA	-żić	-żyć	.	-bę	.	-ła	.	się	.	z nim	1A	-żić	-żyć	.	-bę	.	-ła	.	się	.	z nim	1E	-życ	-życ	.	-bę	.	-ła	.	się	.	z nim	0ryy
1AA	o-	o-	.	tak	.	tak	.	o	.	tak	1E	o-	o-	.	tak	.	tak	.	o	.	tak	1e	o-	o-	.	tak	.	tak	.	o	.	tak	.
=32-	=32-	=32-	=32-	=32-	=32-	=32-	=32-	=32-	=32-	=32-	=32-	=32-	=32-	=32-	=32-	=32-	=32-	=32-	=32-	=32-	=32-	=32-	=32-	=32-	=32-	=32-	=32-	=32-	=32-	=32-	=32-	=32-	=32-
0C	-ſob-	-sob-	.	ma-	.	szla-	.	nie	.	o	0E	-ſob-	-sob-	.	ma-	.	szla-	.	nie	.	o	0e	-ſob-	-sob-	.	ma-	.	szla-	.	nie	.	o	0ryy
=33-	=33-	=33-	=33-	=33-	=33-	=33-	=33-	=33-	=33-	=33-	=33-	=33-	=33-	=33-	=33-	=33-	=33-	=33-	=33-	=33-	=33-	=33-	=33-	=33-	=33-	=33-	=33-	=33-	=33-	=33-	=33-	=33-	=33-
1D	-ney	-nej	.	-rnie	.	-che-	.	po-	.	przy-	1F	-ney	-nej	.	-rnie	.	-che-	.	po-	.	przy-	1d	-ney	-nej	.	-rnie	.	-che-	.	po-	.	przy-	0ryy
1E	zwierch-	zwierzch-	.	stra-	.	-tnej	.	-ku-	.	-jaźń	1G	zwierch-	zwierzch-	.	stra-	.	-tnej	.	-ku-	.	-jaźń	1.c	zwierch-	zwierzch-	.	stra-	.	-tnej	.	-ku-	.	-jaźń	.
=34-	=34-	=34-	=34-	=34-	=34-	=34-	=34-	=34-	=34-	=34-	=34-	=34-	=34-	=34-	=34-	=34-	=34-	=34-	=34-	=34-	=34-	=34-	=34-	=34-	=34-	=34-	=34-	=34-	=34-	=34-	=34-	=34-	=34-
0F	-no-	-no-	.	-ci-	.	du-	.	-si-	.	sta-	0A	-no-	-no-	.	-ci-	.	du-	.	-si-	.	sta-	.	.	.	.	.	.	.	.	.	.	.	0ryy
.	.	.	.	.	.	.	.	.	.	.	.	.	.	.	.	.	.	.	.	.	.	2B\	.	.	.	.	.	.	.	.	.	.	.
.	.	.	.	.	.	.	.	.	.	.	.	.	.	.	.	.	.	.	.	.	.	1A	-no-	-no-	.	-ci-	.	du-	.	-si-	.	sta-	.
=35-	=35-	=35-	=35-	=35-	=35-	=35-	=35-	=35-	=35-	=35-	=35-	=35-	=35-	=35-	=35-	=35-	=35-	=35-	=35-	=35-	=35-	=35-	=35-	=35-	=35-	=35-	=35-	=35-	=35-	=35-	=35-	=35-	=35-
0E	-ſci/	-ści,	.	ła,	.	-szy,	.	-ła,	.	-li,	0G	-ſci	-ści,	.	ła,	.	-szy,	.	-ła,	.	-li,	0B	-ſci/	-ści,	.	ła,	.	-szy,	.	-ła,	.	-li,	0ryy
*custos:AA	*	*	*	*	*	*	*	*	*	*	*custos:A	*	*	*	*	*	*	*	*	*	*	*custos:c	*	*	*	*	*	*	*	*	*	*	*
=36-	=36-	=36-	=36-	=36-	=36-	=36-	=36-	=36-	=36-	=36-	=36-	=36-	=36-	=36-	=36-	=36-	=36-	=36-	=36-	=36-	=36-	=36-	=36-	=36-	=36-	=36-	=36-	=36-	=36-	=36-	=36-	=36-	=36-
*xywh-#5:2775,2975,2053,737	*	*	*	*	*	*	*	*	*	*	*xywh-#5:622,2996,2127,608	*	*	*	*	*	*	*	*	*	*	*xywh-#4:2804,2910,2035,1077	*	*	*	*	*	*	*	*	*	*	*
!LO:LB:g=original	!	!	!	!	!	!	!	!	!	!	!LO:LB:g=original	!	!	!	!	!	!	!	!	!	!	!LO:LB:g=original	!	!	!	!	!	!	!	!	!	!	!
1r	.	.	.	.	.	.	.	.	.	.	1r	.	.	.	.	.	.	.	.	.	.	1r	.	.	.	.	.	.	.	.	.	.	0ryy
1AA	Y	i	.	źleś	.	ser-	.	i-	.	ka-	1A	Y	i	.	źleś	.	ser-	.	i-	.	ka-	1c	Z ſwey	i	.	źleś	.	ser-	.	i-	.	ka-	.
=37-	=37-	=37-	=37-	=37-	=37-	=37-	=37-	=37-	=37-	=37-	=37-	=37-	=37-	=37-	=37-	=37-	=37-	=37-	=37-	=37-	=37-	=37-	=37-	=37-	=37-	=37-	=37-	=37-	=37-	=37-	=37-	=37-	=37-
1C	ſwey	swej	.	u-	.	-ce	.	-ścieś	.	-żdy	1G	ſwey	swej	.	u-	.	-ce	.	-ścieś	.	-żdy	1c	.	swej	.	u-	.	-ce	.	-ścieś	.	-żdy	0ryy
1GG	moc-	moc-	.	-czy-	.	się	.	zdra-	.	to	1G	moc-	moc-	.	-czy-	.	się	.	zdra-	.	to	1B	moc-	moc-	.	-czy-	.	się	.	zdra-	.	to	.
=38-	=38-	=38-	=38-	=38-	=38-	=38-	=38-	=38-	=38-	=38-	=38-	=38-	=38-	=38-	=38-	=38-	=38-	=38-	=38-	=38-	=38-	=38-	=38-	=38-	=38-	=38-	=38-	=38-	=38-	=38-	=38-	=38-	=38-
0AA	-no-	-no-	.	-ni-	.	kru-	.	-dzi-	.	chwa-	0E	-no-	-no-	.	-ni-	.	kru-	.	-dzi-	.	chwa-	0A	-no-	-no-	.	-ni-	.	kru-	.	-dzi-	.	chwa-	0ryy
=39-	=39-	=39-	=39-	=39-	=39-	=39-	=39-	=39-	=39-	=39-	=39-	=39-	=39-	=39-	=39-	=39-	=39-	=39-	=39-	=39-	=39-	=39-	=39-	=39-	=39-	=39-	=39-	=39-	=39-	=39-	=39-	=39-	=39-
!	!	!	!	!	!	!	!	!	!	!	!	!	!	!	!	!	!	!	!	!	!	!LO:TX:t=P:problem:# below	!	!	!	!	!	!	!	!	!	!	!
0EEl/	-ſci.	-ści.	.	-ła.	.	-szy.	.	-ła.	.	-li.	0El/	-ſci.	-ści.	.	-ła.	.	-szy.	.	-ła.	.	-li.	0G#Xl/	-ſci.	-ści.	.	-ła.	.	-szy.	.	-ła.	.	-li.	0ryy
==	==	==	==	==	==	==	==	==	==	==	==	==	==	==	==	==	==	==	==	==	==	==	==	==	==	==	==	==	==	==	==	==	==
*-	*-	*-	*-	*-	*-	*-	*-	*-	*-	*-	*-	*-	*-	*-	*-	*-	*-	*-	*-	*-	*-	*-	*-	*-	*-	*-	*-	*-	*-	*-	*-	*-	*-
!!!system-decoration: [(s1,s2,s3,s4)]
!!!RDF**kern: > = above
!!!RDF**kern: < = below
!!!RDF**kern: l = terminal long
!!!filter-modern: tie -s | humtr -p | sic -sq | shed -e "s/LO:DY:(a|b|rj)/LO:dy:$1/L" | shed -e "s/TX(.*):t=P:/tx$1:t=P:/LG" | modori -m | autostem -r | shed -e "s/yy//" | shed -k -e "s/\(y([^y])/($1/" | shed -e "s/-//B" | shed -e "s/^(\d+[\/\\]right)/$1yy/I; s/^(\d+[\/\\]left)/$1yy/I" | shed -e "s/^(X?)rep$/$1REP/I" | shed -k -e "s/[<>]//g" | shed -e "s/^custos:/Xcustos:/I" | shed -k -e "s/:TUP:/:tup:/L" | shed -k -e "s/r[a-gA-G]+/r/D" | rid -li
!!!ENC: Katarzyna Serwa
!!!END: 2022-05-06
!!!ENC: Mateusz Solarz
!!!END: 2022-04-25
!!!EED-modern: Antoni Szymański
!!!END-modern: 2022-07-24
!!!ENC-iiif: Emilia Ziętek
!!!END-iiif: 2022-09-02
!!!YEC: Copyright 2022 Narodowy Instytut Fryderyka Chopina (https://polishscores.org)
!!!YEM: License CC-BY-4.0 (https://creativecommons.org/licenses/by/4.0)
